!!!SOCIAL_FUNCTION:	songs of games played in a ceremonial manner
!!!PDT:	1932
!!!OTL: No_16_Dancing_Song_from_the_East_God_(d).krn
!!!REG: Wisconsin
!!!LANG: Non-Tone
!!!LING_GROUP: Algonquin
**kern
*staff1
=1-
*clefF4
*k[b-e-]
*M3/8
4r
8c\
=2
8c\L
8c\
8c\J
=3||
*M3/4
2c\
8c\L
8c\J
=4
2B-\
8G\L
8F\J
=5||
*M2/4
4.F\
8c\
=6||
*M3/8
8c\L
8c\
8c\J
=7||
*M3/4
2B-\
8B-\L
8B-\J
=8
2G\
8F\L
8F\J
=9
4.F\
8F\
8D\L
8F\J
=10
4.F\
8r
8G\L
8G\J
=11
2F\
8D/L
8C/J
=12||
*M2/4
4.C/
8D\
=13||
*M3/8
8C/L
8D/
8C/J
=14||
*M3/4
2BB-/
8BB-/L
8BB-/J
=15
2FF/
4r
==
*-
